assets/icons/laragon.svg

<svg width="24" height="24" viewBox="0 0 24 24" fill="none" xmlns="http://www.w3.org/2000/svg">
<g clip-path="url(#clip0_142_21)">
<path d="M12.8429 0.979054C10.7229 0.883054 9.36594 2.41805 9.36594 2.41805C2.51994 2.50005 0.790939 8.42905 0.749939 8.55205L0.501939 9.29205C-1.76606 18.0721 4.39094 21.5121 4.39094 21.5121C4.57894 21.6031 4.76594 21.4461 4.76594 21.4461C5.26594 21.1361 5.01794 20.9161 5.01794 20.9161C3.58794 19.1741 3.42294 15.0521 3.42194 15.0171C2.78194 14.4851 2.17394 13.6991 2.31094 12.6751C2.31094 12.6751 2.39494 12.1651 2.89494 12.4781C2.89494 12.4781 4.08094 13.1221 5.01794 13.3081C5.01694 13.3081 5.49394 13.3511 5.51794 13.4851C5.51794 13.4851 5.89194 15.2371 4.73794 15.8051C5.48294 16.2421 6.20294 16.6551 6.20294 16.6551C6.32694 17.9181 7.01294 21.9751 7.01294 21.9751C7.07694 22.7721 7.91894 22.9291 7.91894 22.9291C8.40194 23.1011 12.0389 22.9911 12.0389 22.9911C13.0529 22.9471 13.1009 22.0381 13.1009 22.0381C13.1159 21.4931 13.1309 18.4181 13.1309 18.4181C13.2269 17.8431 13.8969 17.9181 13.8969 17.9181C14.5999 17.8881 14.5849 18.3721 14.5849 18.3721C14.5679 18.8871 14.6299 21.8681 14.6299 21.8681C14.6599 22.7261 15.4109 22.9931 15.4109 22.9931C15.8989 22.9931 16.2389 22.9891 16.7759 22.9931C17.0279 22.9951 18.2489 22.9931 18.2489 22.9931C18.7989 22.6861 19.6259 22.0241 19.6259 22.0241C25.4939 17.1141 23.7609 10.1241 23.7609 10.1241C22.9299 5.88005 17.7919 5.10005 17.7919 5.10005C17.2099 3.28905 16.1489 2.41805 16.1489 2.41805C14.9269 1.40305 13.8059 1.02305 12.8429 0.979054ZM17.8489 5.25205C17.8489 5.25205 19.6939 8.33205 16.1219 13.1121C16.1229 13.1131 13.1819 17.2281 7.88994 14.3351C8.97394 14.8581 13.4259 16.6471 16.2649 12.3551C16.2649 12.3551 18.8969 8.91805 17.8489 5.25205ZM6.70294 8.86805C6.70294 8.86805 7.99894 8.90405 8.04394 10.6881C8.04394 10.6881 7.02394 8.02005 4.77294 10.4881C4.77294 10.4881 5.17694 8.75905 6.70294 8.86805Z" fill="white"/>
</g>
<defs>
<clipPath id="clip0_142_21">
<rect width="24" height="24" fill="white"/>
</clipPath>
</defs>
</svg>

<svg role="img" viewBox="0 0 24 24" xmlns="http://www.w3.org/2000/svg"><title>Laragon</title><path d="M12.843.979c-2.12-.096-3.477 1.439-3.477 1.439C2.52 2.5.791 8.429.75 8.552l-.248.74c-2.268 8.78 3.889 12.22 3.889 12.22.188.091.375-.066.375-.066.5-.31.252-.53.252-.53-1.43-1.742-1.595-5.864-1.596-5.899-.64-.532-1.248-1.318-1.111-2.342 0 0 .084-.51.584-.197 0 0 1.186.644 2.123.83-.001 0 .476.043.5.177 0 0 .374 1.752-.78 2.32.745.437 1.465.85 1.465.85.124 1.263.81 5.32.81 5.32.064.797.906.954.906.954.483.172 4.12.062 4.12.062 1.014-.044 1.062-.953 1.062-.953.015-.545.03-3.62.03-3.62.096-.575.766-.5.766-.5.703-.03.688.454.688.454-.017.515.045 3.496.045 3.496.03.858.781 1.125.781 1.125.488 0 .828-.004 1.365 0 .252.002 1.473 0 1.473 0 .55-.307 1.377-.969 1.377-.969 5.868-4.91 4.135-11.9 4.135-11.9C22.93 5.88 17.792 5.1 17.792 5.1c-.582-1.811-1.643-2.682-1.643-2.682-1.222-1.015-2.343-1.396-3.306-1.44zm5.006 4.273s1.845 3.08-1.727 7.86c.001.001-2.94 4.116-8.232 1.223 1.084.523 5.536 2.312 8.375-1.98 0 0 2.632-3.437 1.584-7.103zM6.703 8.868s1.296.036 1.341 1.82c0 0-1.02-2.668-3.271-.2 0 0 .404-1.729 1.93-1.62z"/></svg>
